svgs/sharp-solid/car-garage.svg

<svg xmlns="http://www.w3.org/2000/svg" viewBox="0 0 640 512"><!--! Font Awesome Pro 6.6.0 by @fontawesome - https://fontawesome.com License - https://fontawesome.com/license (Commercial License) Copyright 2024 Fonticons, Inc. --><path d="M335 11.7l272 144 28.3 15-29.9 56.6-28.3-15L320 76.2 63 212.3l-28.3 15L4.7 170.7l28.3-15 272-144 15-7.9 15 7.9zM202.9 160l21.1 0 192 0 21.1 0 8.3 19.4L492 288l36 0 0 96 0 64 0 64-80 0 0-64-256 0 0 64-80 0 0-64 0-64 0-96 36 0 46.5-108.6 8.3-19.4zm192 64l-149.8 0-27.4 64 204.7 0-27.4-64zM192 392a24 24 0 1 0 0-48 24 24 0 1 0 0 48zm280-24a24 24 0 1 0 -48 0 24 24 0 1 0 48 0z"/></svg>

<svg xmlns="http://www.w3.org/2000/svg" viewBox="0 0 640 512"><!--! Font Awesome Pro 6.4.2 by @fontawesome - https://fontawesome.com License - https://fontawesome.com/license (Commercial License) Copyright 2023 Fonticons, Inc. --><path d="M335 11.7l272 144 28.3 15-29.9 56.6-28.3-15L320 76.2 63 212.3l-28.3 15L4.7 170.7l28.3-15 272-144 15-7.9 15 7.9zM202.9 160H224 416h21.1l8.3 19.4L492 288h36v96 64 64H448V448H192v64H112V448 384 288h36l46.5-108.6 8.3-19.4zm192 64H245.1l-27.4 64H422.3l-27.4-64zM192 392a24 24 0 1 0 0-48 24 24 0 1 0 0 48zm280-24a24 24 0 1 0 -48 0 24 24 0 1 0 48 0z"/></svg>
